brandFactory_export/2.Regular/Descargar_Bajar_2Regular.svg

<?xml version="1.0" encoding="UTF-8"?>
<svg width="24px" height="24px" viewBox="0 0 24 24" version="1.1" xmlns="http://www.w3.org/2000/svg" xmlns:xlink="http://www.w3.org/1999/xlink">
    <title>2.Regular/Descargar_Bajar_2Regular</title>
    <g id="Symbols" stroke="none" stroke-width="1" fill="none" fill-rule="evenodd">
        <g id="2.Regular/Descargar_Bajar_2Regular" fill="#5CB615" fill-rule="nonzero">
            <path d="M11.794958,23.6033613 C11.4588235,23.6033613 11.1394958,23.4554622 10.9243697,23.2 L0.315966387,12.2285714 C0.302521008,12.2151261 0.292436975,12.2016807 0.278991597,12.1882353 C-0.0201680672,11.8218487 -0.0806722689,11.3176471 0.124369748,10.8941176 C0.312605042,10.4840336 0.719327731,10.2218487 1.1697479,10.2218487 L5.88907563,10.2218487 L5.88907563,2.30588235 C5.88907563,1.04537815 6.91428571,0.0201680672 8.17478992,0.0201680672 L15.4117647,0.0201680672 C16.6756303,0.0201680672 17.697479,1.04201681 17.697479,2.30588235 L17.6941176,10.2218487 L22.4470588,10.2218487 C22.897479,10.2218487 23.307563,10.4840336 23.4957983,10.8941176 C23.7008403,11.3176471 23.6403361,11.8252101 23.3411765,12.1882353 C23.3310924,12.2016807 23.3176471,12.2151261 23.3042017,12.2285714 L12.6689076,23.2 C12.4504202,23.4554622 12.1310924,23.6033613 11.794958,23.6033613 Z M1.45546218,11.5294118 L11.7983193,22.2252101 L22.1680672,11.5294118 L17.5563025,11.5294118 C16.9142857,11.5294118 16.389916,10.9915966 16.389916,10.3327731 L16.3932773,2.3092437 C16.3932773,1.76806723 15.9563025,1.32773109 15.4151261,1.32773109 L8.17815126,1.32773109 C7.63697479,1.32773109 7.2,1.76806723 7.2,2.30588235 L7.2,10.3294118 C7.2,10.9882353 6.67563025,11.5260504 6.03361345,11.5260504 L1.45546218,11.5260504 L1.45546218,11.5294118 Z" id="Descargar_Bajar_2Regular"></path>
        </g>
    </g>
</svg>

<svg width="24" height="24" viewBox="0 0 24 24" xmlns="http://www.w3.org/2000/svg"><path d="M11.795 23.603c-.336 0-.656-.148-.87-.403L.315 12.229l-.037-.04c-.3-.367-.36-.871-.155-1.295a1.15 1.15 0 011.046-.672h4.72V2.306A2.288 2.288 0 018.174.02h7.237a2.284 2.284 0 012.285 2.286l-.003 7.916h4.753c.45 0 .86.262 1.049.672a1.21 1.21 0 01-.192 1.335L12.67 23.2a1.15 1.15 0 01-.874.403zM1.455 11.53l10.343 10.696 10.37-10.696h-4.612c-.642 0-1.166-.537-1.166-1.196l.003-8.024a.98.98 0 00-.978-.981H8.178a.98.98 0 00-.978.978v8.023c0 .66-.524 1.197-1.166 1.197H1.455v.003z" fill="#5CB615" fill-rule="nonzero"/></svg>
